static/assets/images/icons/wallet.svg

<svg width="256" height="256" viewBox="0 0 256 256" fill="none" xmlns="http://www.w3.org/2000/svg">
<path d="M203 71.2524H46.75V69.5562C46.75 67.0583 48.5935 64.9436 51.068 64.6029L178.591 47.0457C181.599 46.6316 184.279 48.9722 184.273 52.0085L184.25 64.1022H203V47.0325C203 33.7116 191.862 24.3628 178.262 26.2398L52.75 43.6054C39.1375 45.4946 28 57.9315 28 71.2524V185.78C28 192.204 30.6339 198.364 35.3223 202.906C40.0107 207.448 46.3696 210 53 210H203C209.63 210 215.989 207.448 220.678 202.906C225.366 198.364 228 192.204 228 185.78V95.4722C228 89.0487 225.366 82.8883 220.678 78.3462C215.989 73.8041 209.63 71.2524 203 71.2524ZM180.971 150.618C178.508 150.618 176.069 150.147 173.794 149.233C171.519 148.319 169.452 146.98 167.71 145.292C165.969 143.604 164.588 141.6 163.647 139.395C162.705 137.191 162.22 134.828 162.221 132.441C162.222 130.055 162.708 127.692 163.651 125.488C164.595 123.284 165.977 121.281 167.719 119.594C169.462 117.908 171.53 116.57 173.806 115.657C176.082 114.745 178.521 114.276 180.984 114.276C185.958 114.278 190.728 116.194 194.245 119.603C197.761 123.012 199.735 127.634 199.734 132.453C199.732 137.273 197.754 141.894 194.236 145.3C190.717 148.707 185.946 150.62 180.971 150.618Z" fill="black"/>
</svg>

<svg xmlns="http://www.w3.org/2000/svg" fill="none" viewBox="0 0 256 256"><path fill="#000" d="M203 71.252H46.75v-1.696a5 5 0 0 1 4.318-4.953l127.523-17.557a5 5 0 0 1 5.682 4.962l-.023 12.094H203v-17.07c0-13.32-11.138-22.67-24.738-20.792L52.75 43.605C39.138 45.495 28 57.932 28 71.252V185.78c0 6.424 2.634 12.584 7.322 17.126S46.37 210 53 210h150c6.63 0 12.989-2.552 17.678-7.094 4.688-4.542 7.322-10.702 7.322-17.126V95.472c0-6.423-2.634-12.584-7.322-17.126S209.63 71.252 203 71.252m-22.029 79.366c-2.463 0-4.902-.471-7.177-1.385a18.8 18.8 0 0 1-6.084-3.941 18.1 18.1 0 0 1-4.063-5.897 17.7 17.7 0 0 1-1.426-6.954 17.7 17.7 0 0 1 1.43-6.953 18.2 18.2 0 0 1 4.068-5.894 18.8 18.8 0 0 1 6.087-3.937 19.3 19.3 0 0 1 7.178-1.381c4.974.002 9.744 1.918 13.261 5.327s5.49 8.031 5.489 12.85c-.002 4.82-1.98 9.441-5.498 12.847-3.519 3.407-8.29 5.32-13.265 5.318"/></svg>
